X:1
T:Ricercare con obligo del Basso come appare
T:Ricercare con obligo del Basso come appare
T:Girolamo Frescobaldi
C:Girolamo Frescobaldi
%%score { 1 2 3 } 4
L:1/8
M:4/4
K:C
V:1 treble 
V:2 treble 
V:3 treble 
V:4 treble 
V:1
 z8 | z8 | G4 B4 | c4 A4 | G4 z c2 B | A2 c2 _B2 A2- | A2 G2 A2 E2 | G3 F/E/ D2 G2 | z4 z2 C2- | %9
 CB,A,C B,2 B2- | BcdB edcB | c3 B/A/ B4 | z8 | z8 | A4 ^c4 | d4 B4 | A8 | z8 | A3 G ^FABA/G/ | %19
 A2 d=c B2 z c- |[M:6/4] cBAc^G A2 G A4- |[M:4/4] A2 z2 ^FGAF | ^G A2 G A2 E^F | GA B2- B2 ^c2 | %24
 B4- B2 B2 | z2 A2- AB^cA | B^c B2 c4 | z2 e2- ed^ce | AB/=c/ d2- d2 ^c2- | c2 B2 A2 d2- | %30
 dcBd GABA/G/ | ^FG A2- A^G/F/ G2 | A2 d2- dc B2- | B2 A2 B3 A | G2 z2 EFGE | A G2 ^F G2 D2 | %36
 E2 z2 edce | AB c2- cB/A/ G2 | z4 z F2 G | AF _B2- B2 AG | A2 c2- c2 c2 | c8 | z d2 c _Bd G2 | %43
 A3 =B c4 | c4 _BA A2- | A2 G2 A4 | z8 | z2 _B2 d4 | _e4 c4 | _B2 _e2- e2 d2 | c3 _B _AGAB/A/ | %51
 G4 z2 FG | AF_BA GF/G/ A2- | AG/F/ G2 A3 G/F/ | E2 A2 z4 | z4 z2 A=B | cG A2- A2 GF | %57
 _B3 A/G/ A4 | G4 z4 | cBAc FGAB | c8 | z4 cBAc | G4 c3 B/A/ | G8 || %64
V:2
 C4 E4 | F4 D4 | C2 E2- E^FGE | AG=FE FC F2- | F2 E2 G>FEG | C4 D2 F2 | E F2 E- E D2 C- | %7
 CG, C2- C2 B,2- | B,CDB, E2 G2- | G2 ^F2 G4 | z2 G2- G=FEG | CDE^F G2 E2 | A2 z ^F- FGAF | %13
 B2 G2- G^FGE | ^F3 G A2 A2- | A2 G^F ^G A2 G | A2 E2- ED^CE | ^F2 D2- D2 D2 | D2 ^C2 D4 | ^F4 G4 | %20
[M:6/4] E4 D4 ^C2 E2 |[M:4/4] z2 A,2- A,G,^F,A, | B,^CDB, E4 | E3 ^F ^GE A2- | A2 ^G^F ED E2 | %25
 ^CDED/E/ ^F4 | z4 z2 E2 | ^G4 A4 | ^F4 E4 | ^F2 F2- FGAF | B2 G2- G4 | z4 D4 | ^F4 =G4 | E4 D4- | %34
 D4 C4- | C4 B,4 | C4 z4 | z4 z2 E2- | EDCE A,2 DE | F2 D2 E F2 E | F2 E2 A2 G2- | G2 F2 E2 A2 | %42
 G2 F2- F2 E2 | F2 CD EC G2- | G2 A2 F2 E2 | D3 E FD F2 | z2 GF _EG C2 | D4 BAGB | _EF G2- GG _A2 | %49
 G8 | z8 | GF_EG D4 | C2 D2 _E2 DC | D2 D=E FC D2- | D2 C2 D2 DC | _B,D G,2 A,2 C2 | %56
 E2 F2- F2 D2- | DCDE FC F2- | F2 E2- E^FGE | A2 =F2 z4 | EFGE A2 G2 | C2 E2- E2 z2 | %62
 CD E2- E2 F2- | F2 ED E4 || %64
V:3
 z8 | z8 | z8 | z8 | z4 z2 C2- | CB,A,C F,G,A,=B, | C4 F,2 A,2 | E,3 F, G,4 | z2 G,2- G,F,E,G, | %9
 C,2 C2 z2 G,2 | B,4 C4 | A,4 G,4 | ^F,2 B,2 A,2 z D- | DCB,D G,A,B,^C | D2 ^F,2- F,G,A,F, | %15
 B,4 ED/=C/B,E | ^C4 z2 A,2- | A,G,^F,A, D,E,F,G, | A,2 E,2 D,2 G,2 | D2 z2 E,^F,G,E, | %20
[M:6/4] A,B, C2- C2 B,2 z2 ^C2 |[M:4/4] E4 ^F4 | D4 ^C4 | z8 | z8 | z2 ^C2- CB,A,C | %26
 ^G, A,2 G, A,4 | ED^CE A,3 C | D=CB,A, ^G,2 A,2 | D4 z4 | B,CDB, E D2 ^C | D2 ^F,G,/A,/ B,4 | %32
 A, D2 C B,2 E2 | C4 D2 G,2 | z2 G,2- G,F,E,G, | C,D,E,D,/C,/ D,2 G,2 | C,2 C2- CDEC | %37
 FE/D/CA, E2 E,2 | G,4 z4 | z8 | z A,2 G, F,A, E,2 | A,3 B, CDEF | D4- D2 C_B, | A,4 z2 C2 | %44
 E2 F2 D2 C2 | _B,4 F,G,A,F, | G,A, _B,2- B,2 A,2 | _B,4 G,A,B,G, | C3 D _EC F2 | %49
 _B,2 G,A, =B, C2 B, | C2 _E2- E2 D2- | D2 C2- C_B,/A,/ B,2 | A,2 G,2- G,2 F,2 | _B,4 F,4 | %54
 z2 F,E, D,G, F,2- | F,2 E,2 F,4 | z2 F,2 A,2 _B,2 | G,4 F,2 A,=B, | CG, C2- CB,/A,/B,C | %59
 A,4- A,2 F,2 | G,F,E,G,- G, F,2 E,/D,/ | E,F,G,E, A,4 | E,2 CB, A,CA,G,/F,/ | G,2 G,2 C4 || %64
V:4
 z8 | z8 | z8 | z8 | C,4 E,4 | F,4 D,4 | C,4 z4 | z4 G,,4 | B,,4 C,4 | A,,4 G,,4 | z8 | z8 | %12
 D,4 ^F,4 | G,4 E,4 | D,4 z4 | z8 | A,,4 ^C,4 | D,4 B,,4 | A,,4 z4 | z8 |[M:6/4] z4 z4 A,,4 | %21
[M:4/4] ^C,4 D,4 | B,,4 A,,4 | z8 | E,4 ^G,4 | A,4 ^F,4 | E,4 z4 | z8 | z8 | D,4 ^F,4 | G,4 E,4 | %31
 D,4 z4 | z8 | z4 G,,4 | B,,4 C,4 | A,,4 G,,4 | z8 | z4 C,4 | E,4 F,4 | D,4 C,4 | z8 | F,4 A,4 | %42
 _B,4 G,4 | F,4 z4 | z8 | _B,,4 D,4 | _E,4 C,4 | _B,,4 z4 | z8 | _E,4 G,4 | _A,4 F,4 | _E,4 z4 | %52
 z8 | z4 F,,4 | A,,4 _B,,4 | G,,4 F,,4 | z8 | z8 | C,4 E,4 | F,4 D,4 | C,8 | C,8- | C,8 | C,8 || %64

